public/external-logos/hashicorp-logo.svg

<svg width="129" height="29" viewBox="0 0 129 29" fill="none" xmlns="http://www.w3.org/2000/svg">
<path d="M43.9567 21.9855V15.4684H37.8804V21.9855H34.7865V6.53174H37.8804V12.8884H43.9567V6.53174H47.0506V21.9855H43.9567Z" fill="black"/>
<path d="M58.3927 21.9853H55.9362L55.7134 21.2206C54.6516 21.8716 53.4126 22.2183 52.1462 22.2188C49.9557 22.2188 49.0214 20.8033 49.0214 18.8537C49.0214 16.5568 50.0795 15.6754 52.5144 15.6754H55.3917V14.4904C55.3917 13.2384 55.0235 12.7977 53.1053 12.7977C51.9896 12.805 50.8775 12.9174 49.7856 13.1333L49.4174 10.9765C50.7557 10.627 52.1374 10.4474 53.5261 10.4424C57.2882 10.4424 58.3958 11.6944 58.3958 14.5284L58.3927 21.9853ZM55.3917 17.7154H53.1795C52.1957 17.7154 51.9265 17.9693 51.9265 18.8303C51.9265 19.6183 52.1957 19.9685 53.1331 19.9685C53.9271 19.9565 54.7049 19.7557 55.3948 19.3848L55.3917 17.7154Z" fill="black"/>
<path d="M64.1999 22.2159C62.7954 22.1941 61.4023 21.9747 60.0665 21.565L60.4842 19.4082C61.6446 19.7214 62.8445 19.8853 64.0514 19.8956C65.3787 19.8956 65.5767 19.6038 65.5767 18.7574C65.5767 18.0628 65.4282 17.7125 63.4852 17.2718C60.5584 16.5976 60.215 15.903 60.215 13.7229C60.215 11.4493 61.2731 10.4512 64.6918 10.4512C65.9012 10.4522 67.1064 10.5844 68.2838 10.8452L67.9744 13.0954C66.8868 12.9061 65.7851 12.7977 64.6794 12.7714C63.3769 12.7714 63.1542 13.0633 63.1542 13.7462C63.1542 14.651 63.2284 14.721 64.8527 15.115C68.2065 15.9526 68.5282 16.37 68.5282 18.6786C68.5282 20.8704 67.8135 22.2159 64.1999 22.2159Z" fill="black"/>
<path d="M77.4571 21.9856V14.1055C77.4571 13.5014 77.1879 13.2008 76.498 13.2008C75.7616 13.2008 74.456 13.6181 73.3732 14.1522V21.9856H70.3721V6.06783L73.3732 5.67383V11.543C74.7318 10.8852 76.2253 10.5128 77.751 10.4515C79.7434 10.4515 80.455 11.7736 80.455 13.7932V21.9856H77.4571Z" fill="black"/>
<path d="M82.6703 9.08566V5.81396H85.6713V9.08566H82.6703ZM82.6703 21.9857V10.685H85.6713V21.9857H82.6703Z" fill="black"/>
<path d="M87.7628 10.7783C87.7628 7.94734 89.5077 6.30127 93.5916 6.30127C95.0921 6.30096 96.587 6.47246 98.0437 6.81202L97.7033 9.33949C96.3767 9.10235 95.0313 8.97055 93.6813 8.94548C91.5404 8.94548 90.8535 9.64302 90.8535 11.2803V17.2196C90.8535 18.8656 91.5435 19.5544 93.6813 19.5544C95.0313 19.5294 96.3767 19.3976 97.7033 19.1604L98.0468 21.6908C96.5901 22.0304 95.0952 22.2019 93.5947 22.2016C89.5108 22.2016 87.7659 20.5555 87.7659 17.7245L87.7628 10.7783Z" fill="black"/>
<path d="M104.2 22.2159C100.092 22.2159 98.9873 20.0824 98.9873 17.7622V14.9078C98.9873 12.5876 100.095 10.4541 104.2 10.4541C108.306 10.4541 109.414 12.5876 109.414 14.9078V17.7622C109.404 20.0824 108.3 22.2159 104.2 22.2159ZM104.2 12.8765C102.601 12.8765 101.988 13.5507 101.988 14.8261V17.8556C101.988 19.131 102.607 19.8052 104.2 19.8052C105.794 19.8052 106.413 19.131 106.413 17.8556V14.8144C106.406 13.539 105.791 12.8648 104.2 12.8648V12.8765Z" fill="black"/>
<path d="M117.374 13.0516C116.273 13.5224 115.211 14.0727 114.2 14.6977V21.9941H111.199V10.6847H113.733L113.931 11.9367C114.907 11.3132 115.966 10.8137 117.08 10.4512L117.374 13.0516Z" fill="black"/>
<path d="M128.753 18.2262C128.753 20.7333 127.572 22.2159 124.793 22.2159C123.718 22.2052 122.647 22.0958 121.594 21.889V26.5587L118.593 26.9527V10.6847H120.978L121.288 11.6361C122.381 10.8659 123.71 10.4512 125.075 10.4541C127.485 10.4541 128.763 11.7996 128.763 14.3767L128.753 18.2262ZM121.597 19.5016C122.47 19.6829 123.361 19.7807 124.255 19.7935C125.338 19.7935 125.755 19.3061 125.755 18.2846V14.3008C125.755 13.3727 125.387 12.8619 124.28 12.8619C123.286 12.8957 122.337 13.2572 121.597 13.8834V19.5016Z" fill="black"/>
<path d="M12.0714 0L0.246613 6.43541V6.43833V21.8892L4.6894 24.3086V8.8549L12.0714 4.83313V0Z" fill="black"/>
<path d="M16.7895 0V12.3075H12.0714V7.71374L7.62857 10.1332V25.9022L12.0714 28.3275V16.055H16.7895V20.6167L21.2323 18.2001V2.41948L16.7895 0Z" fill="black"/>
<path d="M16.7895 28.3335L28.6143 21.8981V21.8923V6.44438L24.1715 4.0249V19.4787L16.7895 23.5004V28.3335Z" fill="black"/>
</svg>

<svg width="129" height="29" fill="none" xmlns="http://www.w3.org/2000/svg"><path d="M43.957 21.985v-6.517H37.88v6.517h-3.094V6.532h3.094v6.356h6.077V6.532h3.094v15.453h-3.094ZM58.393 21.985h-2.457l-.223-.764a6.838 6.838 0 0 1-3.567.998c-2.19 0-3.125-1.416-3.125-3.365 0-2.297 1.059-3.179 3.493-3.179h2.878V14.49c0-1.252-.369-1.692-2.287-1.692-1.115.007-2.227.12-3.32.335l-.368-2.156c1.339-.35 2.72-.53 4.11-.535 3.761 0 4.869 1.252 4.869 4.086l-.003 7.457Zm-3.001-4.27h-2.213c-.983 0-1.253.254-1.253 1.115 0 .788.27 1.139 1.207 1.139a4.939 4.939 0 0 0 2.262-.584l-.003-1.67ZM64.2 22.216a14.892 14.892 0 0 1-4.134-.651l.418-2.157c1.16.313 2.36.477 3.567.488 1.328 0 1.526-.292 1.526-1.139 0-.694-.149-1.045-2.092-1.485-2.927-.674-3.27-1.369-3.27-3.55 0-2.273 1.058-3.27 4.477-3.27 1.21 0 2.414.132 3.592.393l-.31 2.25a22.313 22.313 0 0 0-3.295-.324c-1.302 0-1.525.292-1.525.975 0 .905.074.975 1.699 1.369 3.354.838 3.675 1.255 3.675 3.564 0 2.191-.715 3.537-4.328 3.537ZM77.457 21.986v-7.88c0-.605-.27-.905-.959-.905-.736 0-2.042.417-3.125.951v7.834h-3V6.068l3-.394v5.869a11.074 11.074 0 0 1 4.378-1.091c1.992 0 2.704 1.322 2.704 3.341v8.193h-2.998ZM82.67 9.086V5.814h3.001v3.272h-3Zm0 12.9V10.685h3.001v11.3h-3ZM87.763 10.778c0-2.83 1.745-4.477 5.829-4.477 1.5 0 2.995.171 4.452.511l-.34 2.527a25.557 25.557 0 0 0-4.023-.394c-2.14 0-2.828.698-2.828 2.335v5.94c0 1.646.69 2.334 2.828 2.334a25.542 25.542 0 0 0 4.022-.394l.344 2.53c-1.457.34-2.952.512-4.452.512-4.084 0-5.83-1.647-5.83-4.478l-.002-6.946ZM104.2 22.216c-4.108 0-5.213-2.134-5.213-4.454v-2.854c0-2.32 1.108-4.454 5.213-4.454 4.106 0 5.214 2.134 5.214 4.454v2.854c-.01 2.32-1.114 4.454-5.214 4.454Zm0-9.34c-1.599 0-2.212.675-2.212 1.95v3.03c0 1.275.619 1.95 2.212 1.95 1.594 0 2.213-.675 2.213-1.95v-3.042c-.007-1.275-.622-1.95-2.213-1.95v.012ZM117.374 13.052a23.93 23.93 0 0 0-3.174 1.646v7.296h-3.001v-11.31h2.534l.198 1.253a13.757 13.757 0 0 1 3.149-1.486l.294 2.6ZM128.753 18.226c0 2.507-1.181 3.99-3.96 3.99a17.505 17.505 0 0 1-3.199-.327v4.67l-3.001.394V10.685h2.385l.31.951a6.559 6.559 0 0 1 3.787-1.182c2.41 0 3.688 1.346 3.688 3.923l-.01 3.85Zm-7.156 1.276c.873.18 1.764.279 2.658.292 1.083 0 1.5-.488 1.5-1.51v-3.983c0-.928-.368-1.44-1.475-1.44a4.387 4.387 0 0 0-2.683 1.022v5.619ZM12.071 0 .247 6.435V21.89l4.442 2.42V8.855l7.382-4.022V0Z" fill="#000"/><path d="M16.79 0v12.307H12.07V7.714l-4.442 2.42v15.768l4.442 2.425V16.056h4.719v4.562l4.442-2.417V2.42L16.79 0Z" fill="#000"/><path d="m16.79 28.334 11.824-6.436V6.444l-4.442-2.42V19.48L16.789 23.5v4.834Z" fill="#000"/></svg>
